X: 1
T: Paddy Murphy's Wife
M: 4/4
L: 1/8
R: reel
K: Dmix
~F3A BFAF|G2cG EFGE|FDAD BDAF|1 Add^c dBAG:|2 Add^c d3z||
fada fdag|ecgc eg~g2|fada fded|cAGE EDD2|
fada fdag|ecgc eg~g2|afge fde^c|d2AG FDD2||
